!!!!SEGMENT: pl-wumfc--n44052_lewandowski-leopold-leon--polka-flick-flock.krn
!!!cenid: 18xx:4069
!!!COM: Lewandowski, Leopold Leon
!!!COM-rismID: pe50043087
!!!CDT: 1831-1896
!!!CNT: Polish
!!!OTL: Polka Flick-Flock
!!!PDT:
!!!AGN:
!!!SMS-siglum: PL-Wumfc
!!!SMS-shelfmark: N44052
!!!SMS-shelfwork: W
!!!SMS-variant:
!!!SMS-altvar:
!!!NIFC-rismSourceID: 1001177766
!!!NIFC-rismChildID: 1001177766
!!!NIFC-islandoraID: pl-wumfc:9505
!!!URL-pdf-islandora: https://repozytorium.nifc.pl/islandora/object/pl-wumfc%3A9505/datastream/PDF/view
!!!URL-scan: https://polish.musicsources.pl/pl/lokalizacje/galeria/druki-muzyczne/12493 @EN{Scan on Polish Music Sources Website} @PL{Skany w portalu Dziedzictwo Muzyki Polskiej w otwartym dostępie}
!!!ONB-nifc:
!!!AIN: 2 piano
!!!key: D
**kern	**kern	**dynam
*part2	*part1	*part1
*staff2	*staff1	*
*I"Piano	*I"PIANO	*
*	*I'pf	*
*Ipiano	*Ipiano	*
*ICklav	*ICklav	*
*clefF4	*clefG2	*
*k[f#c#]	*k[f#c#]	*
*D:	*D:	*
*M2/4	*M2/4	*
=1	=1	=1
4A\ 4c# 4e 4g	8ee\L 8gg	f
.	(16ee\L 16gg	.
.	16a\JJ)	.
4A\ 4B#X 4d#X 4f#	8dd#X\L 8ff#	.
.	(16dd#\L 16ff#	.
.	16a\JJ)	.
=2	=2	=2
8A\L 8c# 8e 8g	8a\L 8cc# 8ee 8gg	.
16A\L	16a\L	.
16A\JJ	16a\JJ	.
8A\	8a\L	.
8r	(16a\L	p
.	16bb\JJ)	.
=3!|:	=3!|:	=3!|:
8D\L	8aa\L	.
8A\ 8d 8f#	8a^\J	.
8A\J 8d 8f#	8a^\L	.
8r	(16a\L	.
.	16gg\JJ)	.
!LO:LB:g=original	!LO:LB:g=original	!
=4	=4	=4
8D\L	8ff#\L	.
8A\ 8d 8f#	8a^\	.
8A\J 8d 8f#	8a^\J	.
8r	(16a\LL	.
.	16ff#\JJ)	.
=5	=5	=5
8BB\L	8eeM\L	.
8G#X\J 8B 8e	(16g#X\L	.
.	16ff#\JJ)	.
8E\L	8eeM\L	.
8G#\J 8B 8e	(16g#\L	.
.	16ff#\JJ)	.
=6	=6	=6
8AA\L	8ee\L	.
8E\ 8A 8c#	8a^\J	.
8E\J 8A 8c#	8a^\L	.
8r	(16a\L	.
.	16bb\JJ)	.
=7	=7	=7
8D\L	8aa\L	.
8A\ 8d 8f#	8a^\J	.
8A\J 8d 8f#	8a^\L	.
8r	(16a\L	.
.	16gg\JJ)	.
!LO:LB:g=original	!LO:LB:g=original	!
=8	=8	=8
8D\L	8ff#\L	.
8A\ 8d 8f#	8a^\J	.
8A\J 8d 8f#	8a^\L	.
8r	(16a\L	.
.	16ff#\JJ)	.
=9	=9	=9
8BB\L	8eeM\L	.
8G#X\J 8B 8e	(16g#X\L	.
.	16ff#\JJ)	.
8AA\L	8eeM\L	.
8Gn\J 8A 8c#	(16a\L	.
.	16ff#\JJ)	.
=10	=10	=10
8D\L	8dd\L	.
8F#\ 8A 8d	8ff#\	.
8F#\J 8A 8d	8dd\J	.
8r	(16a\LL	.
.	16bb\JJ)	.
=:|!	=:|!	=:|!
8D\L	8dd\L	.
!	!LO:TX:b:t=fine	!
8F#\ 8A 8d	8ff#\	.
8F#\J 8A 8d	8dd\J	.
=11	=11	=11
8r	(24ee\LL	.
.	24ff#\	.
.	24gg#X\JJ)	.
!LO:LB:g=original	!LO:LB:g=original	!
=12!|:	=12!|:	=12!|:
8AA\L	8a\L 8aa	f
8E\J 8A 8c#	16cc#\L 16ee	.
.	16cc#\JJ 16ee	.
8AA\L	8a\L 8cc#	.
8E\J 8A 8c#	8cc#\J 8ee	.
=13	=13	=13
8AA\L	8a\L 8cc#	.
8E\J 8A 8c#	8cc#\ 8ee	.
8AA\L	8b\ 8dd	.
8F#\J 8A 8d	8dd\J 8ff#	.
=14	=14	=14
8AA\L	8cc#\L 8ee	.
8E\ 8A 8c#	8ee\J 8aa	.
8E\ 8A 8c#	[4aa\ [4ccc#	.
8E\J 8A 8c#	.	.
=15	=15	=15
8AA\L	8aa\L] 8ccc#]	.
8E\J 8A 8c#	(16ddd\L	.
.	16ccc#\JJ)	.
8C#\L	8gg\L 8bb	.
8A\J 8c# 8e	8ff#\J 8aa	.
!LO:LB:g=original	!LO:LB:g=original	!
=16	=16	=16
8BB\L	8ee\L 8gg	.
8G#X\ 8B 8e	8ff#\J	.
8G#\ 8B 8e	[4ee\	.
8G#\J 8B 8e	.	.
=17	=17	=17
8E\L	8ee\L]	.
8G\J 8B 8e	16dd\L	.
.	16cc#\JJ	.
8E\L	8b\L	.
8G\J 8B 8e	8cc#\J	.
=18	=18	=18
8AA\L 8C# 8E 8A	8a/L	.
8FF#^\ 8F#	8f#^/	.
8EE^\ 8E	8e^/	.
8FF#^\J 8F#	8f#^/J	.
=19	=19	=19
8EE^>/L 8E	8e^/L	.
8DD^>/ 8D	8d^/	.
8BBB^>/ 8BB	8B^/J	.
8EE^>/J 8E	(24ee\LL	.
.	24ff#\	.
.	24gg\JJ)	.
=20:|!	=20:|!	=20:|!
4AA\ 4C# 4E 4A	8a\L 8aa	.
.	16a\L 16aa	.
.	16a\JJ 16aa	.
4A\ 4e 4gn	8a\L 8aa	.
.	16a\L 16aa	.
.	16a\JJ 16aa	.
=21	=21	=21
4A\ 4d 4f#	8a\L 8aa	.
.	16a\L 16aa	.
.	16a\JJ 16aa	.
8A\ 8c# 8e	8a\L 8aa	.
!LO:TX:b:t=Dal Segno al fine a piu Trio	!	!
8r	(16a\L	.
.	16bb\JJ)	.
!LO:LB:g=original	!LO:LB:g=original	!
==22	==22	==22
*k[f#]	*k[f#]	*
8r	16dd\LL	p
.	16dd\JJ	.
=23!|:	=23!|:	=23!|:
8GG\L	8dd'\L	.
8G\ 8B 8d	8ee'\	.
8G\ 8B 8d	8ff#'\	.
8G\J 8B 8d	8gg'\J	.
=24	=24	=24
8GG\L	8aa\L	.
8G\ 8B 8d	8gg\J	.
8G\ 8B 8d	8dd\L	.
8G\J 8B 8d	16dd\L	.
.	16dd\JJ	.
=25	=25	=25
8GG\L	8dd'\L	.
8G\ 8B 8d	8ee'\	.
8G\ 8B 8d	8ff#'\	.
8G\J 8B 8d	8gg'\J	.
!LO:LB:g=original	!LO:LB:g=original	!
=26	=26	=26
8C\L	8bb\L	.
8A\ 8c 8e	8aa\J	.
8A\ 8c 8e	8ee\L	.
8A\J 8c 8e	16ee\L	.
.	16ee\JJ	.
=27	=27	=27
8C\L	8ee'\L	.
8E\ 8A 8c	8ff#'\	.
8E\ 8A 8c	8gg'\	.
8E\J 8A 8c	8aa'\J	.
=28	=28	=28
8D\L	8bb\L	.
8G\ 8B 8d	8gg\J	.
8G\ 8B 8d	4ddd\	.
8G\J 8B 8d	.	.
=29	=29	=29
8D\L	8ddd\L	.
8F#\J 8A 8d	8ff#\J	.
8D\L	8ddd\L	.
8F#\J 8A 8c 8d	16ddd\L	.
.	16ddd#X\JJ	.
=30	=30	=30
8GG\L	8eee\L	.
8G\ 8B 8d	16dddn\L	.
.	16bb\JJ	.
8G\J 8B 8d	8gg\L	.
8r	16dd\L	.
.	16dd\JJ	.
!LO:LB:g=original	!LO:LB:g=original	!
=31:|!	=31:|!	=31:|!
8D\L	8bb\L	.
8G\ 8B 8d	8gg\J	.
8G\ 8B 8d	8ddd\L	.
8G\J 8B 8d	16dd\L	.
.	16dd\JJ	.
=32	=32	=32
8D\L	8dd\L	.
8F#\ 8A 8c 8d	8ee-X\	.
8D\	8een\	.
8F#\J 8A 8c 8d	8ff#\J	.
=	=	=
8GG\L	8gg\L	.
8G\ 8B 8d	8gg\	.
8G\J 8B 8d	8gg\J	.
=33||;	=33||;	=33||
8r	16a/LL	.
.	16a/JJ	.
=34||	=34||	=34||
*k[f#c#]	*k[f#c#]	*
8DD\L 8D	8a/L	f
8F#\J 8A 8d	16b/L	.
.	16cc#/JJ	.
8FF#\L 8F#	8dd\L	.
8F#\J 8A 8d	16ee\L	.
.	16ff#\JJ	.
!LO:LB:g=original	!LO:LB:g=original	!
=35	=35	=35
8GG\L	8aa\L	.
8G\ 8B 8e	16gg\L	.
.	16ff#\JJ	.
8G\ 8B 8e	8ee\L	.
8G\J 8B 8e	16dd#X\L	.
.	16ee\JJ	.
=36	=36	=36
8AA\L	8ff#\L	.
8A\J 8c# 8e	16ee\L	.
.	16cc#\JJ	.
8C#\L	8a\L	.
8A\J 8c# 8e	16gg#X\L	.
.	16aa\JJ	.
=37	=37	=37
8D\L	8bb\L	.
8F#\ 8A 8d	16aa\L	.
.	16ff#\JJ	.
8F#\J 8A 8d	8dd\L	.
8r	16a\L	.
.	16a\JJ	.
=38	=38	=38
8DD\L 8D	8a/L	.
8F#\J 8A 8d	16b/L	.
.	16cc#/JJ	.
8FF#\L 8F#	8dd\L	.
8F#\J 8A 8d	16ee\L	.
.	16ff#\JJ	.
!LO:LB:g=original	!LO:LB:g=original	!
=39	=39	=39
8GG\L	8aa\L	.
8G\ 8B 8e	16gg\L	.
.	16ff#\JJ	.
8G\ 8B 8e	8ee\L	.
8G\J 8B 8e	16dd#X\L	.
.	16ee\JJ	.
=40	=40	=40
8AA\L	8ff#\L	.
8A\J 8c# 8e	16ee\L	.
.	16cc#\JJ	.
8C#\L	8a\L	.
8A\J 8e 8g	8aa\J	.
=41	=41	=41
!LO:TX:b:t=Trio dal Segn	!	!
8D\ 8F# 8A 8d	8dd\L	.
8r	16dd\L	.
.	16dd\JJ	.
16d\LL	16dd\LL	.
16d\JJ	16dd\	.
!LO:TX:t=P:problem:urwana strona	!	!
8ryy	16dd\	.
.	16dd\JJ	.
==	==	==
*-	*-	*-
!!!RDF**kern: > = above
!!!RDF**kern: < = below
!!!system-decoration: [(s1,s2)]
!!!ENC: Andrzej Gręziak
!!!END: 2022-08-18
!!!ENC: Julita Ruszuk
!!!END: 2022-09-22
!!!YEC: Copyright 2022 Narodowy Instytut Fryderyka Chopina (https://polishscores.org)
!!!YEM: License CC-BY-4.0 (https://creativecommons.org/licenses/by/4.0)
